!!!COM: Bach, Johann Sebastian
!!!OPR: Joh. Seb. Bachs vierstimmige Choralgesänge
!!!XEN: Four-part Chorales
!!!OTL: Chorale 61. Gelobet seist du, Jesu Christ
!!!SCT: BWV 314
!!!SCA: Thematisch-systematisches Verzeichnis der musikalischen Werke Johann Sebastian Bach: Bach-Werke-Verzeichnis (Schmieder)
!!!YOR: Bach Gesellschaft Edition xxxix
!!!ENC: Steven Rasmussen
!!!CDT: 1685/3//-1750/7/28/
!!!OCY: Deutschland
!!!YEC: Copyright (c) 1994, 2000 Center for Computer Assisted Research in the Humanities
!!!YEM: Rights to all derivative editions reserved
!!!YEN: United States of America
**kern	**kern	**silbe	**kern	**silbe	**kern	**silbe
*I"[BASSO]	*I"[TENORE]	*I"[TENORE]	*I"[ALTO]	*I"[ALTO]	*I"[SOPRANO]	*I"[SOPRANO]
*clefF4	*clefGv2	*	*clefG2	*	*clefG2	*
*k[f#c#]	*k[f#c#]	*	*k[f#c#]	*	*k[f#c#]	*
*D:	*D:	*	*D:	*	*D:	*
*M4/4	*M4/4	*	*M4/4	*	*M4/4	*
4F#	4A	.	8c#L	.	4a	Ge-
.	.	.	8dJ	.	.	.
=1	=1	=1	=1	=1	=1	=1
4C#	4A	.	4e	.	4a	-lo-
4D	4d	.	4f#	.	4a	-bet
4.G	4d	.	8f#L	.	4b	seist
.	.	.	8eJ	.	.	.
.	4c#	.	4e	.	4a	du,
16F#LL	.	.	.	.	.	.
16EJJ	.	.	.	.	.	.
=2	=2	=2	=2	=2	=2	=2
8F#L	8dL	.	4a	.	4dd	Je-
8DJ	16eL	.	.	.	.	.
.	16f#JJ	.	.	.	.	.
4A	4c#	.	8aL	.	4ee	-su
.	.	.	8gJ	.	.	.
2D;	2A;	.	2f#;	.	2dd;	Christ,
=3	=3	=3	=3	=3	=3	=3
4A	4A	.	8eL	.	8cc#L	dass
.	.	.	8f#J	.	8ddJ	.
4G	4B	.	4g	.	4ee	du
4F#	8c#L	.	8aL	.	4ff#	Mensch
.	8dJ	.	8f#J	.	.	.
4G#	4e	.	4b	.	8eeL	ge-
.	.	.	.	.	8ddJ	.
=4	=4	=4	=4	=4	=4	=4
4A	4e	.	8bL	.	4cc#	-bo-
.	.	.	8aJ	.	.	.
4E	4e	.	8aL	.	4b	-ren
.	.	.	8g#J	.	.	.
4AA;	4c#;	.	4e;	.	4a;	bist,
8DL	4d	.	4f#	.	4a	von
8C#J	.	.	.	.	.	.
=5	=5	=5	=5	=5	=5	=5
4BB	8dL	.	8f#L	.	4dd	ei-
.	8eJ	.	8gJ	.	.	.
4F#	4f#	.	4a	.	8cc#L	-ner
.	.	.	.	.	8ddJ	.
8C#L	4e	.	4a	.	4ee	Jung-
8DJ	.	.	.	.	.	.
4E	8eL	.	4g#	.	4b	-frau
.	8BJ	.	.	.	.	.
=6	=6	=6	=6	=6	=6	=6
8D#L	4B	.	8f#L	.	8aL	das
8EJ	.	.	8eJ	.	8g#J	.
4BB	4B	.	8eL	.	4f#	ist
.	.	.	8d#J	.	.	.
4E;	4G#;	.	4B;	.	4e;	wahr,
4A	8AL	.	4c#	.	4e	dess
.	8G#J	.	.	.	.	.
=7	=7	=7	=7	=7	=7	=7
4A	4F#	.	4d#	.	4b	freu-
8G#L	8BL	.	4d#	.	4b	-et
8F#J	8AJ	.	.	.	.	.
8EL	4G#	.	4e	.	4b	sich
8DJ	.	.	.	.	.	.
4C#	4A#	.	4e	.	4cc#	der
=8	=8	=8	=8	=8	=8	=8
4.BB	8BL	.	4.d	.	8ddL	En-
.	8AJ	.	.	.	8cc#J	.
.	4G	.	.	.	4b	.
8C#	.	.	8e	.	.	.
4D	8F#L	.	4f#	.	8aL	.
.	8G#J	.	.	.	8bJ	.
8C#L	4A	.	8eL	.	4cc#	-gel
8D#J	.	.	8f#J	.	.	.
=9	=9	=9	=9	=9	=9	=9
2E;	2e;	.	2g#;	.	2b;	Schar.
4F#	8c#L	Al-	4f#	Al-	4a	Al-
.	8dJ	.	.	.	.	.
4C#	8eL	-le-	[4e	-le-	4a	-le-
.	8GJ	.	.	.	.	.
=10	=10	=10	=10	=10	=10	=10
2D	8F#L	-lu-	8eL]	.	2a	-lu-
.	8AJ	.	16dL	.	.	.
.	.	.	16eJJ	.	.	.
.	4d	.	4f#	-lu-	.	.
4AA;	4c#;	-ja!	4e;	-ja!	4a;	-ja!
==|!	==|!	==|!	==|!	==|!	==|!	==|!
*-	*-	*-	*-	*-	*-	*-
!!!RWG: Key is interpreted using the Humdrum key tool.
!!!URL-pdf: https://s9.imslp.org/files/imglnks/usimg/6/6b/IMSLP24489-PMLP09471-CCARH_Bach_Chorales.pdf#page=42 Musedata edition
!!!URL-pdf: https://s9.imslp.org/files/imglnks/usimg/7/7a/IMSLP04155-Bach_-_BGA_253-438.pdf#page=33 	Bach-Gesellschaft Ausgabe, Band 39 (pp.175-276) Leipzig: Breitkopf und Härtel, 1892. Plate B.W. XXXIX.
!!!END: 1994/06/06
!!!EMD: Converted from MuseData to Humdrum Dec 19, 2000, by Andreas Kornstaedt using muse2kern.
!!!EED: Craig Stuart Sapp
!!!EEV: 2024/03/31
!!!filter-keyboard: extract -i kern | satb2gs
!!!title: @{OTL} (@{SCT})
